X: 15500
T: Glenn Graham's
R: jig
M: 6/8
K: Amajor
e2A ecA|dcd fed|cea ecA|BAB cBA|
e2A ecA|dcd fed|cea ecA|BAAA3:|
|:caa aec|dcdf3|e2a aec|cBB Bed|
caa aec|dcdf3|eaf ecA|BcBA3:|

